material/.icons/material/augmented-reality.svg

<svg xmlns="http://www.w3.org/2000/svg" viewBox="0 0 24 24"><path d="M5 3a2 2 0 00-2 2v14a2 2 0 002 2h14a2 2 0 002-2V5a2 2 0 00-2-2H5m2 6h3c.6 0 1 .5 1 1v5H9.5v-1.5h-2V15H6v-5c0-.5.4-1 1-1m6 0h3.5c.85 0 1.5.65 1.5 1.5v1c0 .6-.4 1.15-.9 1.4L18 15h-1.5l-.85-2H14.5v2H13V9m-5.5 1.5V12h2v-1.5h-2m7 0v1h2v-1h-2"/></svg>

<?xml version="1.0" encoding="UTF-8"?><!DOCTYPE svg PUBLIC "-//W3C//DTD SVG 1.1//EN" "http://www.w3.org/Graphics/SVG/1.1/DTD/svg11.dtd"><svg xmlns="http://www.w3.org/2000/svg" xmlns:xlink="http://www.w3.org/1999/xlink" version="1.1" id="mdi-augmented-reality" width="24" height="24" viewBox="0 0 24 24"><path d="M5,3C3.89,3 3,3.9 3,5V19A2,2 0 0,0 5,21H19A2,2 0 0,0 21,19V5A2,2 0 0,0 19,3H5M7,9H10C10.6,9 11,9.5 11,10V15H9.5V13.5H7.5V15H6V10C6,9.5 6.4,9 7,9M13,9H16.5C17.35,9 18,9.65 18,10.5V11.5C18,12.1 17.6,12.65 17.1,12.9L18,15H16.5L15.65,13H14.5V15H13V9M7.5,10.5V12H9.5V10.5H7.5M14.5,10.5V11.5H16.5V10.5H14.5" /></svg>
